X: 6
T: The Boyne Hunt
R: reel
M: 4/4
L: 1/8
K: Dmaj
BAFA DAFA|DAFA BEEB|BAFA DAFA|ABde fddB|
BAFA DAFA|DAFA BEEB|BAFA DAFA|ABde fddg||
f3/2a/2 ((3{b}a^ga) bgaf|dfaf gfeg|f3/2a/2 ((3{b}a^ga) bgaf|ABde fd (3(dcd)|
f3/2a/2 ((3{b}a^ga) bgaf|dfaf gfeg|fgef dedB|ABde fddg||
fdad bdad|fdad ceeg|fdad bdad|ABde fddg|
fdad bdad|fdad ceeg|fgef dedB|ABde fddB|]


Tune 142	Setting 28251

